icons/hand_tools/spoon_and_fork.svg

<svg viewBox="0 0 15 15" xmlns="http://www.w3.org/2000/svg">
 <path d="m4.49 0c0.86-0.01 2.29 1.78 2.5 3.71 0.2 1.93-1.76 2.74-1.74 3.41l0.25 6.88c0.01 0.25-0.07 0.56-0.26 0.73-0.2 0.19-0.45 0.28-0.73 0.27-0.26 0.01-0.52-0.09-0.7-0.27-0.19-0.17-0.32-0.48-0.31-0.73l0.26-6.88c0.03-0.78-1.91-1.79-1.75-3.42 0.18-1.63 1.62-3.71 2.48-3.7zm0.12 1.19c0.26 1.18 0.41 2.06 0.41 2.65s-0.14 1.35-0.4 2.27c0.8-0.37 1.19-1.13 1.19-2.27s-0.4-2.02-1.2-2.65zm4.39-1.19-0.51 0.01-0.49 5.49c0.02 0.82 1.78 1.18 1.76 2l-0.26 6.5c-0.01 0.27 0.09 0.53 0.28 0.72s0.45 0.29 0.71 0.28c0.27 0.01 0.53-0.09 0.72-0.28s0.3-0.45 0.29-0.72l-0.26-6.5c-0.03-0.82 1.9-1.19 1.75-2l-0.49-5.5-0.49-0.01-0.26 4.01-0.76 0.5-0.25-4.49h-0.49l-0.25 4.49-0.75-0.5z"/>
</svg>

<svg xmlns="http://www.w3.org/2000/svg" viewBox="0 0 15 15">
  <path d="M4.49 0C5.35 -0.01 6.78 1.78 6.99 3.71C7.19 5.64 5.23 6.45 5.25 7.12L5.5 14C5.51 14.25 5.43 14.56 5.24 14.73C5.04 14.92 4.79 15.01 4.51 15C4.25 15.01 3.99 14.91 3.81 14.73C3.62 14.56 3.49 14.25 3.5 14L3.76 7.12C3.79 6.34 1.85 5.33 2.01 3.7C2.19 2.07 3.63 -0.01 4.49 0ZM4.61 1.19C4.87 2.37 5.02 3.25 5.02 3.84C5.02 4.43 4.88 5.19 4.62 6.11C5.42 5.74 5.81 4.98 5.81 3.84C5.81 2.7 5.41 1.82 4.61 1.19ZM9.5 0L8.99 0.01L8 5.5C8.02 6.32 9.78 6.68 9.76 7.5L9.5 14C9.49 14.27 9.59 14.53 9.78 14.72C9.97 14.91 10.23 15.01 10.49 15C10.76 15.01 11.02 14.91 11.21 14.72C11.4 14.53 11.51 14.27 11.5 14L11.24 7.5C11.21 6.68 13.14 6.31 12.99 5.5L11.99 0.01L11.5 0L11.75 4L10.99 4.5L10.74 0.01L10.25 0.01L10 4.5L9.25 4L9.5 0Z"/>
</svg>
